mimetypes/24/application-x-bittorrent.svg

<svg width="24" version="1.1" xmlns="http://www.w3.org/2000/svg" height="24">
<defs id="defs3051">
<style type="text/css" id="current-color-scheme">
.ColorScheme-Text {
color:#4d4d4d;
}
</style>
</defs>
<path style="fill:currentColor" d="m 9,3 v 5 h 2 v 1 h 1 v 1 h 1 v -1 h 2 v -1 h -2 v -1 h -2 v -2 h 2 v -1 h -1 v -1 h -3 z  m 4,1 h 2 v -1 h -2 v 1 z  m 0,1 v 2 h 2 v -2 h -2 z  m 0,5 v 1 h 2 v -1 h -2 z  m 0,1 h -2 v 1 h 1 v 1 h 2 v 2 h -2 v -2 h -1 v -1 h -8 l 9,9 9,-9 h -8 v -1 z  m -2,0 v -2 h -2 v 2 h 2 z " class="ColorScheme-Text"/>
</svg>

<svg width="24" version="1.1" xmlns="http://www.w3.org/2000/svg" height="24">
<defs id="defs3051">
<style type="text/css" id="current-color-scheme">
.ColorScheme-Text {
color:#4d4d4d;
}
</style>
</defs>
<path style="fill:currentColor" d="m 9,3 v 5 h 2 v 1 h 1 v 1 h 1 V 9 h 2 V 8 H 13 V 7 H 11 V 5 h 2 V 4 H 12 V 3 Z m 4,1 h 2 V 3 h -2 z m 0,1 v 2 h 2 V 5 Z m 0,5 v 1 h 2 v -1 z m 0,1 h -2 v 1 h 1 v 1 H 11 V 12 H 9 v 1 H 4 l 8,8 8,-8 h -5 v -1 h -2 z m -2,0 V 10 9 H 9 v 2 z m 0,3 h 1 v 1 h 1 v 1 h -1 v -1 h -1 z" class="ColorScheme-Text"/>
</svg>
